packages/kaspersky-hexa-ui-icons/src/iconsSVGs/48/PrivacyCleaner.svg

<svg xmlns="http://www.w3.org/2000/svg" width="48" height="48" fill="none" viewBox="0 0 48 48"><path fill="currentColor" fill-rule="evenodd" d="M48 38V0H0v38h16v8h-4v2h24v-2h-4v-8zM2 36v-5h17v-2H2V2h44v27H29v2h17v5zm28 10H18v-8h12zm4-21c1.6569 0 3-1.3431 3-3v-6H11v6c0 1.6569 1.3431 3 3 3h6v1a2 2 0 0 0 1 1.72V34h2v-6h2v6h2v-6.28A2 2 0 0 0 28 26v-1zm-20-2c-.5523 0-1-.4477-1-1v-4h22v4c0 .5523-.4477 1-1 1zm12 3h-4v-1h4zM13 15h-2V8h2zm0-8h-2V4h2zm4 8h-2v-2h2zm0-3h-2V5h2zm4 3h-2v-4h2zm0-5h-2V7h2zm12 5h-2v-1h2zm0-2h-2V6h2zm-4 2h-2v-3h2zm0-4h-2V9h2zm-4 4h-2V7h2zm0-9h-2V5h2zm12 9h-2V6h2zm0-10h-2V4h2z" clip-rule="evenodd"/></svg>

<svg width="48" height="48" viewBox="0 0 48 48" fill="none" xmlns="http://www.w3.org/2000/svg">
<path fill-rule="evenodd" clip-rule="evenodd" d="M48 38V0H0V38H16V46H12V48H36V46H32V38H48ZM2 36V31H19V29H2V2H46V29H29V31H46V36H2ZM30 46H18V38H30V46ZM34 25C35.6569 25 37 23.6569 37 22V16H11V22C11 23.6569 12.3431 25 14 25H20V26C20.0043 26.7102 20.3849 27.3649 21 27.72V34H23V28H25V34H27V27.72C27.6151 27.3649 27.9957 26.7102 28 26V25H34ZM14 23C13.4477 23 13 22.5523 13 22V18H35V22C35 22.5523 34.5523 23 34 23H14ZM26 26H22V25H26V26ZM13 15H11V8H13V15ZM13 7H11V4H13V7ZM17 15H15V13H17V15ZM17 12H15V5H17V12ZM21 15H19V11H21V15ZM21 10H19V7H21V10ZM33 15H31V14H33V15ZM33 13H31V6H33V13ZM29 15H27V12H29V15ZM29 11H27V9H29V11ZM25 15H23V7H25V15ZM25 6H23V5H25V6ZM37 15H35V6H37V15ZM37 5H35V4H37V5Z"  fill="currentColor"/>
</svg>
